Numix/16/status/indicator-keyboard-Sk-2.svg

<?xml version="1.0" encoding="UTF-8" standalone="no"?>
<svg
   xmlns:dc="http://purl.org/dc/elements/1.1/"
   xmlns:cc="http://creativecommons.org/ns#"
   xmlns:rdf="http://www.w3.org/1999/02/22-rdf-syntax-ns#"
   xmlns:svg="http://www.w3.org/2000/svg"
   xmlns="http://www.w3.org/2000/svg"
   xmlns:sodipodi="http://sodipodi.sourceforge.net/DTD/sodipodi-0.dtd"
   xmlns:inkscape="http://www.inkscape.org/namespaces/inkscape"
   viewBox="0 0 16 16"
   id="svg2"
   version="1.1"
   inkscape:version="0.91 r13725"
   sodipodi:docname="indicator-keyboard-Sk-2.svg">
  <metadata
     id="metadata14">
    <rdf:RDF>
      <cc:Work
         rdf:about="">
        <dc:format>image/svg+xml</dc:format>
        <dc:type
           rdf:resource="http://purl.org/dc/dcmitype/StillImage" />
      </cc:Work>
    </rdf:RDF>
  </metadata>
  <defs
     id="defs12" />
  <sodipodi:namedview
     pagecolor="#ffffff"
     bordercolor="#666666"
     borderopacity="1"
     objecttolerance="10"
     gridtolerance="10"
     guidetolerance="10"
     inkscape:pageopacity="0"
     inkscape:pageshadow="2"
     inkscape:window-width="640"
     inkscape:window-height="480"
     id="namedview10"
     showgrid="false"
     inkscape:zoom="14.75"
     inkscape:cx="8"
     inkscape:cy="8"
     inkscape:window-x="65"
     inkscape:window-y="24"
     inkscape:window-maximized="0"
     inkscape:current-layer="svg2" />
  <path
     style="fill:#ececec;fill-opacity:1"
     d="M 1.5996094 0 C 0.71320937 2.9605947e-16 0 0.71320937 0 1.5996094 L 0 14.400391 C 2.9605947e-16 15.286791 0.71320937 16 1.5996094 16 L 14.400391 16 C 15.286791 16 16 15.286791 16 14.400391 L 16 1.5996094 C 16 0.71320937 15.286791 0 14.400391 0 L 1.5996094 0 z M 7.9082031 4.1113281 L 7.9082031 8.5390625 C 8.0582031 8.3950625 8.2261094 8.2309219 8.4121094 8.0449219 C 8.5981094 7.8589219 8.78275 7.6705156 8.96875 7.4785156 C 9.16075 7.2865156 9.3417656 7.0999219 9.5097656 6.9199219 C 9.6777656 6.7399219 9.8214062 6.5813594 9.9414062 6.4433594 L 10.642578 6.4433594 C 10.504578 6.5873594 10.349781 6.7496875 10.175781 6.9296875 C 10.001781 7.1096875 9.8189531 7.2980938 9.6269531 7.4960938 C 9.4409531 7.6880937 9.2543594 7.8765 9.0683594 8.0625 L 8.5644531 8.5664062 C 8.7504531 8.6924063 8.9482031 8.8547344 9.1582031 9.0527344 C 9.3742031 9.2507344 9.5850625 9.4671719 9.7890625 9.7011719 C 9.9990624 9.9291721 10.193047 10.166109 10.373047 10.412109 C 10.559047 10.652109 10.715797 10.879703 10.841797 11.095703 L 10.148438 11.095703 C 10.004438 10.855703 9.8402969 10.622531 9.6542969 10.394531 C 9.4742969 10.160531 9.282125 9.9403283 9.078125 9.7363281 C 8.880125 9.5323281 8.6786094 9.3476875 8.4746094 9.1796875 C 8.2766094 9.0116875 8.0882031 8.8698594 7.9082031 8.7558594 L 7.9082031 11.095703 L 7.3222656 11.095703 L 7.3222656 4.2207031 L 7.9082031 4.1113281 z M 4.375 4.7246094 C 4.543 4.7246094 4.7071406 4.7357656 4.8691406 4.7597656 C 5.0311406 4.7837656 5.1803594 4.817375 5.3183594 4.859375 C 5.4623594 4.895375 5.5930313 4.936375 5.7070312 4.984375 C 5.8270312 5.032375 5.9259063 5.0846719 6.0039062 5.1386719 L 5.7871094 5.6503906 C 5.6131094 5.5303906 5.4004375 5.4352813 5.1484375 5.3632812 C 4.9024375 5.2912813 4.6356563 5.2558594 4.3476562 5.2558594 C 4.1496563 5.2558594 3.9668281 5.2763594 3.7988281 5.3183594 C 3.6368281 5.3543594 3.495 5.4178125 3.375 5.5078125 C 3.255 5.5918125 3.1598906 5.6980781 3.0878906 5.8300781 C 3.0218906 5.9620781 2.9882813 6.1225938 2.9882812 6.3085938 C 2.9882812 6.5005938 3.0237031 6.6629219 3.0957031 6.7949219 C 3.1677031 6.9269219 3.2665781 7.0407187 3.3925781 7.1367188 C 3.5245781 7.2327187 3.6775625 7.3184844 3.8515625 7.3964844 C 4.0255625 7.4744844 4.2159219 7.556625 4.4199219 7.640625 C 4.6659219 7.742625 4.8953281 7.8433125 5.1113281 7.9453125 C 5.3333281 8.0473125 5.5255 8.1686406 5.6875 8.3066406 C 5.8495 8.4446406 5.9801719 8.6125469 6.0761719 8.8105469 C 6.1721719 9.0085469 6.21875 9.2510625 6.21875 9.5390625 C 6.21875 10.103063 6.021 10.526594 5.625 10.808594 C 5.235 11.090594 4.7052031 11.230469 4.0332031 11.230469 C 3.7932031 11.230469 3.573 11.215547 3.375 11.185547 C 3.177 11.155547 2.99975 11.120125 2.84375 11.078125 C 2.68775 11.030125 2.5572188 10.981594 2.4492188 10.933594 C 2.3412188 10.885594 2.2553125 10.844594 2.1953125 10.808594 L 2.3945312 10.277344 C 2.4545313 10.313344 2.5347187 10.354344 2.6367188 10.402344 C 2.7387187 10.450344 2.8600469 10.498875 2.9980469 10.546875 C 3.1360469 10.588875 3.2908438 10.624297 3.4648438 10.654297 C 3.6388437 10.684297 3.8310156 10.699219 4.0410156 10.699219 C 4.5270156 10.699219 4.9057812 10.613453 5.1757812 10.439453 C 5.4457813 10.259453 5.5800781 9.970219 5.5800781 9.5742188 C 5.5800781 9.3462187 5.5353125 9.1578125 5.4453125 9.0078125 C 5.3613125 8.8518125 5.2475156 8.7230938 5.1035156 8.6210938 C 4.9595156 8.5130937 4.7934219 8.4235625 4.6074219 8.3515625 C 4.4214219 8.2735625 4.2274375 8.1914219 4.0234375 8.1074219 C 3.7654375 8.0054219 3.5340781 7.9009687 3.3300781 7.7929688 C 3.1260781 7.6849688 2.9525937 7.5655937 2.8085938 7.4335938 C 2.6645937 7.2955937 2.5526094 7.1388438 2.4746094 6.9648438 C 2.4026094 6.7908437 2.3671875 6.5875156 2.3671875 6.3535156 C 2.3671875 5.8195156 2.5444375 5.4146719 2.8984375 5.1386719 C 3.2524375 4.8626719 3.745 4.7246094 4.375 4.7246094 z M 12.476562 8.7539062 C 12.870462 8.7539062 13.166334 8.851875 13.365234 9.046875 C 13.564134 9.237975 13.664062 9.5044563 13.664062 9.8476562 C 13.664062 9.9997563 13.636631 10.14475 13.582031 10.28125 C 13.527431 10.41385 13.452975 10.543169 13.359375 10.667969 C 13.269675 10.792769 13.165828 10.912297 13.048828 11.029297 C 12.931828 11.146297 12.812306 11.263859 12.691406 11.380859 C 12.590006 11.478359 12.492031 11.578288 12.394531 11.679688 C 12.300931 11.777187 12.214719 11.877116 12.136719 11.978516 C 12.062619 12.076016 12.001878 12.172031 11.955078 12.269531 C 11.912178 12.363131 11.890625 12.457181 11.890625 12.550781 L 11.890625 12.5625 L 13.804688 12.5625 L 13.804688 12.896484 L 11.46875 12.896484 C 11.46875 12.888684 11.466824 12.874969 11.462891 12.855469 L 11.462891 12.755859 C 11.462891 12.572559 11.4962 12.402094 11.5625 12.246094 C 11.6288 12.086194 11.713053 11.937275 11.814453 11.796875 C 11.919753 11.656475 12.035356 11.525197 12.160156 11.404297 C 12.288856 11.283397 12.412297 11.165834 12.529297 11.052734 C 12.626797 10.959134 12.716934 10.869003 12.802734 10.783203 C 12.892434 10.693503 12.970809 10.603366 13.037109 10.509766 C 13.103409 10.416166 13.156313 10.316237 13.195312 10.210938 C 13.234312 10.105638 13.253906 9.9900344 13.253906 9.8652344 C 13.253906 9.5922344 13.17945 9.39825 13.03125 9.28125 C 12.88695 9.16035 12.704722 9.0996094 12.482422 9.0996094 C 12.357622 9.0996094 12.245937 9.1152844 12.148438 9.1464844 C 12.050938 9.1776844 11.964725 9.2149125 11.890625 9.2578125 C 11.820425 9.2968125 11.759684 9.3379594 11.708984 9.3808594 C 11.658284 9.4237594 11.621056 9.4570688 11.597656 9.4804688 L 11.398438 9.2167969 C 11.421838 9.1894969 11.462984 9.1503094 11.521484 9.0996094 C 11.583884 9.0450094 11.6603 8.9921062 11.75 8.9414062 C 11.8436 8.8907063 11.951366 8.8476 12.072266 8.8125 C 12.193166 8.7735 12.328363 8.7539063 12.476562 8.7539062 z "
     id="path4" />
</svg>

<svg xmlns="http://www.w3.org/2000/svg" viewBox="0 0 16 16">
 <path d="m 1.6 0 c -0.886 0 -1.6 0.713 -1.6 1.6 l 0 12.801 c 0 0.886 0.713 1.6 1.6 1.6 l 12.801 0 c 0.886 0 1.6 -0.713 1.6 -1.6 l 0 -12.801 c 0 -0.886 -0.713 -1.6 -1.6 -1.6 l -12.801 0 z m 6.309 4.111 l 0 4.428 c 0.15 -0.144 0.318 -0.308 0.504 -0.494 c 0.186 -0.186 0.371 -0.374 0.557 -0.566 c 0.192 -0.192 0.373 -0.379 0.541 -0.559 c 0.168 -0.18 0.312 -0.339 0.432 -0.477 l 0.701 0 c -0.138 0.144 -0.293 0.306 -0.467 0.486 c -0.174 0.18 -0.357 0.368 -0.549 0.566 c -0.186 0.192 -0.373 0.38 -0.559 0.566 l -0.504 0.504 c 0.186 0.126 0.384 0.288 0.594 0.486 c 0.216 0.198 0.427 0.414 0.631 0.648 c 0.21 0.228 0.404 0.465 0.584 0.711 c 0.186 0.24 0.343 0.468 0.469 0.684 l -0.693 0 c -0.144 -0.24 -0.308 -0.473 -0.494 -0.701 c -0.18 -0.234 -0.372 -0.454 -0.576 -0.658 c -0.198 -0.204 -0.4 -0.389 -0.604 -0.557 c -0.198 -0.168 -0.386 -0.31 -0.566 -0.424 l 0 2.34 l -0.586 0 l 0 -6.875 l 0.586 -0.109 z m -3.533 0.613 c 0.168 0 0.332 0.011 0.494 0.035 c 0.162 0.024 0.311 0.058 0.449 0.1 c 0.144 0.036 0.275 0.077 0.389 0.125 c 0.12 0.048 0.219 0.1 0.297 0.154 l -0.217 0.512 c -0.174 -0.12 -0.387 -0.215 -0.639 -0.287 c -0.246 -0.072 -0.513 -0.107 -0.801 -0.107 c -0.198 0 -0.381 0.02 -0.549 0.063 c -0.162 0.036 -0.304 0.099 -0.424 0.189 c -0.12 0.084 -0.215 0.19 -0.287 0.322 c -0.066 0.132 -0.1 0.293 -0.1 0.479 c 0 0.192 0.035 0.354 0.107 0.486 c 0.072 0.132 0.171 0.246 0.297 0.342 c 0.132 0.096 0.285 0.182 0.459 0.26 c 0.174 0.078 0.364 0.16 0.568 0.244 c 0.246 0.102 0.475 0.203 0.691 0.305 c 0.222 0.102 0.414 0.223 0.576 0.361 c 0.162 0.138 0.293 0.306 0.389 0.504 c 0.096 0.198 0.143 0.441 0.143 0.729 c 0 0.564 -0.198 0.988 -0.594 1.27 c -0.39 0.282 -0.92 0.422 -1.592 0.422 c -0.24 0 -0.46 -0.015 -0.658 -0.045 c -0.198 -0.03 -0.375 -0.065 -0.531 -0.107 c -0.156 -0.048 -0.287 -0.097 -0.395 -0.145 c -0.108 -0.048 -0.194 -0.089 -0.254 -0.125 l 0.199 -0.531 c 0.06 0.036 0.14 0.077 0.242 0.125 c 0.102 0.048 0.223 0.097 0.361 0.145 c 0.138 0.042 0.293 0.077 0.467 0.107 c 0.174 0.03 0.366 0.045 0.576 0.045 c 0.486 0 0.865 -0.086 1.135 -0.26 c 0.27 -0.18 0.404 -0.469 0.404 -0.865 c 0 -0.228 -0.045 -0.416 -0.135 -0.566 c -0.084 -0.156 -0.198 -0.285 -0.342 -0.387 c -0.144 -0.108 -0.31 -0.198 -0.496 -0.27 c -0.186 -0.078 -0.38 -0.16 -0.584 -0.244 c -0.258 -0.102 -0.489 -0.206 -0.693 -0.314 c -0.204 -0.108 -0.377 -0.227 -0.521 -0.359 c -0.144 -0.138 -0.256 -0.295 -0.334 -0.469 c -0.072 -0.174 -0.107 -0.377 -0.107 -0.611 c 0 -0.534 0.177 -0.939 0.531 -1.215 c 0.354 -0.276 0.847 -0.414 1.477 -0.414 z m 8.102 4.03 c 0.394 0 0.69 0.098 0.889 0.293 c 0.199 0.191 0.299 0.458 0.299 0.801 c 0 0.152 -0.027 0.297 -0.082 0.434 c -0.055 0.133 -0.129 0.262 -0.223 0.387 c -0.09 0.125 -0.194 0.244 -0.311 0.361 c -0.117 0.117 -0.237 0.235 -0.357 0.352 c -0.101 0.098 -0.199 0.197 -0.297 0.299 c -0.094 0.097 -0.18 0.197 -0.258 0.299 c -0.074 0.097 -0.135 0.194 -0.182 0.291 c -0.043 0.094 -0.064 0.188 -0.064 0.281 l 0 0.012 l 1.914 0 l 0 0.334 l -2.336 0 c 0 -0.008 -0.002 -0.022 -0.006 -0.041 l 0 -0.1 c 0 -0.183 0.033 -0.354 0.1 -0.51 c 0.066 -0.16 0.151 -0.309 0.252 -0.449 c 0.105 -0.14 0.221 -0.272 0.346 -0.393 c 0.129 -0.121 0.252 -0.238 0.369 -0.352 c 0.098 -0.094 0.188 -0.184 0.273 -0.27 c 0.09 -0.09 0.168 -0.18 0.234 -0.273 c 0.066 -0.094 0.119 -0.194 0.158 -0.299 c 0.039 -0.105 0.059 -0.221 0.059 -0.346 c 0 -0.273 -0.074 -0.467 -0.223 -0.584 c -0.144 -0.121 -0.327 -0.182 -0.549 -0.182 c -0.125 0 -0.236 0.016 -0.334 0.047 c -0.098 0.031 -0.184 0.068 -0.258 0.111 c -0.07 0.039 -0.131 0.08 -0.182 0.123 c -0.051 0.043 -0.088 0.076 -0.111 0.1 l -0.199 -0.264 c 0.023 -0.027 0.065 -0.066 0.123 -0.117 c 0.062 -0.055 0.139 -0.108 0.229 -0.158 c 0.094 -0.051 0.201 -0.094 0.322 -0.129 c 0.121 -0.039 0.256 -0.059 0.404 -0.059 z" style="fill:#ececec;fill-opacity:1"/>
</svg>
